images/chr-logo-small.svg

<svg height="282.23999" viewBox="0 0 249.52 282.23999" width="249.52" xmlns="http://www.w3.org/2000/svg" xmlns:xlink="http://www.w3.org/1999/xlink"><clipPath id="a"><path d="m0 211.68h818.64v-211.68h-818.64z"/></clipPath><g clip-path="url(#a)" fill="#00a3e0" transform="matrix(1.3333333 0 0 -1.3333333 0 282.24)"><path d="m0 0 16.342 9.436v-39.306l3.73-2.153 3.735 2.156v39.302l16.34-9.435 3.733 6.465-23.807 13.744-23.805-13.744z" transform="translate(73.9124 151.8066)"/><path d="m0 0-16.341 9.435 34.038 19.651v4.309l-3.735 2.155-34.036-19.651v18.87h-7.464v-27.49l23.806-13.744z" transform="translate(64.2152 65.4726)"/><path d="m0 0-68.507-39.554-68.506 39.554v79.104l68.506 39.553 68.507-39.553zm-68.507 127.276-75.971-43.862v-87.725l75.971-43.862 75.971 43.862v87.725z" transform="translate(162.493 66.288)"/><path d="m0 0 16.341-9.435-46.114-26.625-46.11 26.625 16.341 9.435-3.733 6.465-23.806-13.745v-27.489h7.465v18.87l46.115-26.625-.002-53.246-16.342 9.435-3.733-6.465 23.806-13.744 23.807 13.745-3.733 6.465-16.341-9.435v53.249l46.112 26.621v-18.87h7.465v27.489l-23.806 13.744z" transform="translate(123.7577 146.2079)"/><path d="m0 0v-18.869l-34.038 19.651-3.73-2.153v-4.313l34.036-19.65-16.341-9.435 3.732-6.464 23.805 13.744v27.489z" transform="translate(143.8309 100.2411)"/><path d="m0 0h-.987v4.995h-.03l-1.961-4.995h-.623l-1.961 4.995h-.029v-4.995h-.988v5.983h1.525l1.786-4.546 1.758 4.546h1.51zm-7.799 5.185h-1.873v-5.185h-.988v5.185h-1.874v.798h4.735z" transform="translate(171.3324 46.0546)"/></g></svg>

<?xml version="1.0" encoding="UTF-8" standalone="no"?>
<svg xmlns:dc="http://purl.org/dc/elements/1.1/"
     xmlns:cc="http://creativecommons.org/ns#"
     xmlns:rdf="http://www.w3.org/1999/02/22-rdf-syntax-ns#"
     xmlns:svg="http://www.w3.org/2000/svg"
     xmlns="http://www.w3.org/2000/svg"
     viewBox="0 0 249.52 282.23999"
     height="282.23999"
     width="249.52"
     xml:space="preserve"
     id="svg2"
     version="1.1">
  <metadata id="metadata8">
    <rdf:RDF>
      <cc:Work rdf:about="">
        <dc:format>image/svg+xml</dc:format>
        <dc:type rdf:resource="http://purl.org/dc/dcmitype/StillImage" />
      </cc:Work>
    </rdf:RDF>
  </metadata>
  <defs id="defs6">
    <clipPath id="clipPath18" clipPathUnits="userSpaceOnUse">
      <path id="path16" d="M 0,211.68 H 818.64 V 0 H 0 Z" />
    </clipPath>
  </defs>
  <g transform="matrix(1.3333333,0,0,-1.3333333,0,282.24)" id="g10">
    <g id="g12">
      <g clip-path="url(#clipPath18)" id="g14">
        <g transform="translate(73.9124,151.8066)" id="g62">
          <path id="path64"
                 style="fill:#00a3e0;fill-opacity:1;fill-rule:nonzero;stroke:none"
                 d="M 0,0 16.342,9.436 V -29.87 l 3.73,-2.153 3.735,2.156 V 9.435 L 40.147,0 43.88,6.465 20.073,20.209 -3.732,6.465 Z" />
        </g>
        <g transform="translate(64.2152,65.4726)" id="g66">
          <path id="path68"
                 style="fill:#00a3e0;fill-opacity:1;fill-rule:nonzero;stroke:none"
                 d="m 0,0 -16.341,9.435 34.038,19.651 v 4.309 L 13.962,35.55 -20.074,15.899 v 18.87 h -7.464 V 7.279 L -3.732,-6.465 Z" />
        </g>
        <g transform="translate(162.493,66.288)" id="g70">
          <path id="path72"
                 style="fill:#00a3e0;fill-opacity:1;fill-rule:nonzero;stroke:none"
                 d="M 0,0 -68.507,-39.554 -137.013,0 V 79.104 L -68.507,118.657 0,79.104 Z M -68.507,127.276 -144.478,83.414 V -4.311 l 75.971,-43.862 75.971,43.862 v 87.725 z" />
        </g>
        <g transform="translate(123.7577,146.2079)" id="g74">
          <path id="path76"
                 style="fill:#00a3e0;fill-opacity:1;fill-rule:nonzero;stroke:none"
                 d="M 0,0 16.341,-9.435 -29.773,-36.06 -75.883,-9.435 -59.542,0 -63.275,6.465 -87.081,-7.28 v -27.489 h 7.465 v 18.87 l 46.115,-26.625 -0.002,-53.246 -16.342,9.435 -3.733,-6.465 23.806,-13.744 23.807,13.745 -3.733,6.465 -16.341,-9.435 v 53.249 l 46.112,26.621 v -18.87 h 7.465 V -7.28 L 3.732,6.464 Z" />
        </g>
        <g transform="translate(143.8309,100.2411)" id="g78">
          <path id="path80"
                 style="fill:#00a3e0;fill-opacity:1;fill-rule:nonzero;stroke:none"
                 d="m 0,0 v -18.869 l -34.038,19.651 -3.73,-2.153 v -4.313 l 34.036,-19.65 -16.341,-9.435 3.732,-6.464 23.805,13.744 V 0 Z" />
        </g>
        <g transform="translate(171.3324,46.0546)" id="g82">
          <path id="path84"
                 style="fill:#00a3e0;fill-opacity:1;fill-rule:nonzero;stroke:none"
                 d="m 0,0 h -0.987 v 4.995 h -0.03 L -2.978,0 H -3.601 L -5.562,4.995 H -5.591 V 0 h -0.988 v 5.983 h 1.525 L -3.268,1.437 -1.51,5.983 H 0 Z M -7.799,5.185 H -9.672 V 0 h -0.988 v 5.185 h -1.874 v 0.798 h 4.735 z" />
        </g>
      </g>
    </g>
  </g>
</svg>
